!!!OTL: Ritter und Magd Es schlief ein Graf bei seiner Dienstmagd,
!!!ARE: Europa, Mitteleuropa, Deutschland (BRD), Hessen
!!!YOR: 3, S. 64
!!    ????
!!!SCT: Q0055k
!!!YEM: Copyright 1995, estate of Helmut Schaffrath.
**kern
*ICvox
*Ivox
*M6/8
*k[f#]
*G:
{8d
=1
8d
8g
8g
8g
8f#
8e
=2
8e
8d
8d
4d}
{8d
=3
8d
8g
8g
8g
8a
8b
=4
4.b
4a}
{8g
=5
8a
8a
8a
8dd
8cc#
8b
=6
4a
8a
4f#}
{8a
=7
8.a
16g
8g
8g
8a
8b
=8
4.b
8a
8r}
{8g
=9
8a
8a
8a
8dd
8cc#
8b
=10
4a
8a
4f#}
{8a
=11
8.a
16g
8g
8g
8a
8b
=12
4.b
8a
8r}
==
!!!AGN: Ballade, Betrug, Schwangerschaft, Tod, Selbstmord, Herr und Magd
!! Vorder- und Nachsatz in verschiedenen Tonarten.
!!!ONB: ESAC (Essen Associative Code) Database: BALLADE
!!!AMT: compound duple
!!!AIN: vox
!!!EED: Helmut Schaffrath
!!!EEV: 1.0
*-
